X:1
T:Josephine, 88.6 D
T:Josephine, 88.6 D
T:Ernest Richard Kroeger, 1901
T:Public Domain Courtesy of the Cyber Hymnal™
C:Ernest Richard Kroeger, 1901
Z:Public Domain
Z:Courtesy of the Cyber Hymnal™
%%score ( 1 2 ) ( 3 4 )
L:1/8
Q:1/4=160
M:3/2
K:Eb
V:1 treble 
V:2 treble 
V:3 bass 
V:4 bass 
V:1
 [EG]4 | [EG]6 [EG]2 [DF]2 E2 | [EB]3 [EA] [EA]4 [EA]4 | [DA]6 [DA]2 [DG]2 [DF]2 | %4
 [^Fc]3 [GB] [GB]4 e4 | [Fd]2 [DB]2 [Fd]4 [Ec]4 | [DB]6 z2 [FB]4 | [FB]6 [FB]2 [=Ec]2 [EG]2 | %8
 [GB]3 [FA] [FA]4 [EA]4 | [DA]6 [DA]2 [DB]2 [DF]2 | [FA]3 [EG] [EG]4 [_DG]4 | %11
 [CA]2 [_CF]2 [B,E]4 [B,D]4 | [B,E]8 |] %13
V:2
 x4 | x10 E2 | x12 | x12 | x8 (G2 _G2) | x12 | x12 | x12 | x12 | x12 | x12 | x12 | x8 |] %13
V:3
 [E,B,]4 | [E,B,]6 [E,B,]2 [E,A,]2 [E,G,]2 | [F,C]3 [F,C] [F,C]4 [F,C]4 | %3
 [B,,B,]6 [B,,C]2 [B,,B,]2 [B,,A,]2 | [E,=A,]3 [E,B,] [E,B,]4 [C,B,]4 | %5
 [F,B,]2 [F,B,]2 [F,=A,]4 [F,A,]4 | [B,,B,]6 z2 [B,D]4 | [G,_D]6 [G,D]2 [C,C]2 [C,C]2 | %8
 [F,C]3 [F,C] [F,C]4 [F,_C]4 | [F,B,]6 [F,B,]2 [B,,B,]2 [B,,B,]2 | %10
 [E,B,]3 [E,B,] [E,B,]4 [=E,B,]4 | [F,A,]2 [A,,A,]2 [B,,G,]4 (F,2 A,2) | [E,G,]8 |] %13
V:4
 x4 | x12 | x12 | x12 | x12 | x12 | x12 | x12 | x12 | x12 | x12 | x8 B,,4 | x8 |] %13

